!!!!SEGMENT: pl-kk--kk-i-382--021-002_anonim--nro-7-gloria.krn
!!!cenid: 18xx:1492
!!!COM: Anonim
!!!COM-rismid: pe30004985
!!!CDT:
!!!CNT:
!!!OTL: Nro 7 Gloria
!!!PDT:
!!!AGN: Sacred
!!!SMS-siglum: PL-Kk
!!!SMS-shelfmark: Kk.I.382
!!!SMS-shelfwork: 021-002
!!!SMS-variant:
!!!SMS-altvar:
!!!NIFC-rismid: 1001139138
!!!URL-scan: http://repozytorium.nifc.pl/skany/pl-kk-nut--i-382
!!!ONB-nifc: UWAGA: obsada: S (T 1), A (B 1), T 2, B 2; S (T 1): skan 0020; A (B 1): skan 0165-00166; T 2: skan 0091-0092; B 2: skan 0237-0238
**kern	**text	**dynam	**kern	**text	**kern	**text	**kern	**text
*part4	*part4	*part4	*part3	*part3	*part2	*part2	*part1	*part1
*staff4	*staff4	*	*staff3	*staff3	*staff2	*staff2	*staff1	*staff1
*I"Basso II	*	*	*I"Tenore II	*	*I"Alto vel Basso I	*	*I"Soprano vel Tenore I.	*
*I'B 2	*	*	*I'T 2	*	*I'A (B 1)	*	*I'S (T 1)	*
*clefF4	*	*	*clefC4	*	*clefC3	*	*clefC1	*
*k[b-]	*	*	*k[b-]	*	*k[b-]	*	*k[b-]	*
*F:	*	*	*F:	*	*F:	*	*F:	*
*M4/4	*	*	*M4/4	*	*M4/4	*	*M4/4	*
*met(C.)	*	*	*met(C.)	*	*met(C.)	*	*met(C.)	*
=1	=1	=1	=1	=1	=1	=1	=1	=1
*2\right	*	*	*2\right	*	*2\right	*	*2\right	*
!LO:TX:t=P:problem:all\right:global	!	!	!LO:TX:t=P:problem:all\right:global	!	!LO:TX:t=P:problem:all\right:global	!	!LO:TX:t=P:problem:all\right:global	!
!LO:TX:a:t=P:problem:w źródle ta adnotacja zapisana przed pierwszym taktem, przed pięciolinią i częściowo na pięciolinii	!	!	!LO:TX:a:t=P:problem:w źródle ta adnotacja zapisana przed pierwszym taktem, przed pięciolinią	!	!LO:TX:a:t=P:problem:w źródle ta adnotacja zapisana przed pierwszym taktem, przed pięciolinią	!	!LO:TX:a:t=P:problem:w źródle ta adnotacja zapisana przed pierwszym taktem, na pięciolinii	!
!LO:TX:a:i:t=Gloria	!	!	!LO:TX:a:i:t=in F.\nGloria	!	!LO:TX:a:i:t=[G]loria	!	!LO:TX:b:a:i:t=Gloria	!
4F\	Et	.	4A\	Et	4f\	Et	(>4cc\	Et
4C/	in	.	4B-\	in	4g\	in	4b-\)	.
4AA/	ter-	.	4c\	ter-	4a\	ter-	(>4a\	in
4C/	-ra	.	4A\	-ra	4g\	-ra	4b-\)	.
=2	=2	=2	=2	=2	=2	=2	=2	=2
2F\	pax	.	4c\	pax	(>4f\	pax	4a\	ter-
.	.	.	4B-\	.	4b-\)	.	4dd\	-ra
(>4F\	ho-	.	4A\	ho-	(>4a\	ho-	4cc\	pax
4E\)	.	.	4B-\	.	4g\)	.	4b-\	ho-
=3	=3	=3	=3	=3	=3	=3	=3	=3
4F\	-mi-	.	4c\	-mi-	4f\	-mi-	4a\	-mi-
4F\	-ni-	.	4c\	-ni-	4f\	-ni-	4a\	-ni-
2F\	-bus	.	2c\	-bus	2f\	-bus	2a\	-bus
=4	=4	=4	=4	=4	=4	=4	=4	=4
4C/	bo-	.	4c\	bo-	4g\	bo-	4b-\	bo-
!LO:SIC:l:v:s=-nae	!	!	!LO:SIC:l:v:s=-nae	!	!LO:SIC:l:v:s=-nae	!	!LO:SIC:l:v:s=-nae	!
4F\	-ne	.	4c\	-ne	4f\	-ne	4a\	-ne
4E\	vo-	.	4c\	vo-	4g\	vo-	4b-\	vo-
4F\	-lun-	.	4c\	-lun-	4f\	-lun-	4a\	-lun-
!	!	!	!	!	!	!	!LO:LB:g=original	!
=5	=5	=5	=5	=5	=5	=5	=5	=5
4C/	-ta-	.	4c\	-ta-	4f\	-ta-	4a\	-ta-
4C/	-tis	.	4c\	-tis	4e\	-tis	4g\	-tis
2C/	lau-	.	2e\	lau-	2g\	lau-	2b-\	lau-
!	!	!	!LO:LB:g=original	!	!LO:LB:g=original	!	!	!
=6	=6	=6	=6	=6	=6	=6	=6	=6
4F\	-da-	.	4c\	-da-	4f\	-da-	4a\	-da-
4C/	-mus	.	4e\	-mus	4g\	-mus	4b-\	-mus
4F\	te	.	4f\	te	4a\	te	4cc\	te
4F\	be-	.	4f\	be-	4a\	be-	4cc\	be-
=7	=7	=7	=7	=7	=7	=7	=7	=7
4F\	-ne-	.	4f\	-ne-	4a\	-ne-	4cc\	-ne-
4F\	-di-	.	4c\	-di-	(>8b-\L	-di-	(>8dd\L	-di-
.	.	.	.	.	8a\J)	.	8cc\J)	.
4E\	-ci-	.	4c\	-ci-	4g\	-ci-	4b-\	-ci-
4F\	-mus	.	4c\	-mus	4f\	-mus	4a\	-mus
=8	=8	=8	=8	=8	=8	=8	=8	=8
2C/	te	.	2c\	te	2e\	te	2g\	te
4C/	a-	.	4e\	a-	4g\	a-	4b-\	a-
4E\	-do-	.	4c\	-do-	4e\	-do-	4g\	-do-
=9	=9	=9	=9	=9	=9	=9	=9	=9
4F\	-ra-	.	4c\	-ra-	4f\	-ra-	4a\	-ra-
4E\	-mus	.	4c\	-mus	4g\	-mus	4b-\	-mus
4F\	te	.	4c\	te	4a\	te	4cc\	te
4F\	glo-	.	4B-\	glo-	4b-\	glo-	4dd\	glo-
!	!	!	!	!	!LO:LB:g=original	!	!LO:LB:g=original	!
=10	=10	=10	=10	=10	=10	=10	=10	=10
(>4F\	-ri-	.	(>4A\	-ri-	(>4a\	-ri-	(>4cc\	-ri-
4B-\)	.	.	4B-\)	.	4b-\)	.	4dd\)	.
(>4A\	-fi-	.	2c\	-fi-	(>4a\	-fi-	(>4cc\	-fi-
4B-\)	.	.	.	.	4g\)	.	4b-\)	.
!LO:LB:g=original	!	!	!	!	!	!	!	!
=11	=11	=11	=11	=11	=11	=11	=11	=11
2c\	-ca-	.	2c\	-ca-	2f\	-ca-	2a\	-ca-
2C/	-mus	.	2c\	-mus	2e\	-mus	2g\	-mus
!	!	!	!LO:LB:g=original	!	!	!	!	!
=12	=12	=12	=12	=12	=12	=12	=12	=12
!	!	!	!	!	!LO:TX:a:t=P:problem:w źródle ta adnotacja zapisana za taktem 12, na pięciolinii	!	!	!
!	!	!	!	!	!LO:TX:b:i:t=V&colon; S&colon;	!	!	!
1F	te,	.	1c	te,	1f	te.	2.a\	te,
.	.	.	.	.	.	.	4r	.
!	!	!	!	!	!LO:PB:g=original	!	!	!
=13	=13	=13	=13	=13	==13	==13	==13	==13
2F\	gra-	.	2c\	gra-	2f\	gra-	2a\	gra-
4A\	-ti-	.	4c\	-ti-	4f\	-ti-	4a\	-ti-
4F\	-as	.	4c\	-as	4f\	-as	4a\	-as
=14	=14	=14	=14	=14	=14	=14	=14	=14
2C/	a-	.	2c\	a-	2e\	a-	2g\	a-
4C/	-gi-	.	4c\	-gi-	4e\	-gi-	4g\	-gi-
4F\	-mus	.	4c\	-mus	4f\	-mus	4a\	-mus
=15	=15	=15	=15	=15	=15	=15	=15	=15
1C	ti-	.	1c	ti-	4g\	ti-	(>4b-\	ti-
.	.	.	.	.	4f\	.	4a\	.
.	.	.	.	.	4e\	.	4g\	.
.	.	.	.	.	4g\	.	4b-\)	.
=16	=16	=16	=16	=16	=16	=16	=16	=16
2F\	-bi	.	2c\	-bi	2f\	-bi	2a\	-bi
!	!	!	!	!	!	!	!LO:LB:g=original	!
4C/	pro-	.	4e\	pro-	4g\	pro-	4cc\	pro-
4E\	-pter	.	4c\	-pter	4e\	-pter	4cc\	-pter
=17	=17	=17	=17	=17	=17	=17	=17	=17
(>4F\	ma-	.	2c\	ma-	2a\	ma-	2ff\	ma-
4G\)	.	.	.	.	.	.	.	.
!	!	!	!LO:TX:a:t=P:problem:w źródle ta adnotacja zapisana za taktem 17, na pięciolinii	!	!	!	!	!
!	!	!	!LO:TX:b:i:t=V&colon; S&colon;	!	!	!	!	!
(>4A\	-gnam	.	2c\	-gnam,	2a\	-gnam	2ff\	-gnam
4B-\)	.	.	.	.	.	.	.	.
!LO:LB:g=original	!	!	!LO:PB:g=original	!	!	!	!	!
=18	=18	=18	=18	=18	=18	=18	=18	=18
2c\	glo-	.	2B-\	glo-	2g\	glo-	2ee\	glo-
4A\	-ri-	.	4A\	-ri-	4f\	-ri-	4cc\	-ri-
4F\	-am	.	4A\	-am	4f\	-am	4cc\	-am
!	!	!	!	!	!LO:LB:g=original	!	!	!
=19	=19	=19	=19	=19	=19	=19	=19	=19
1C	tu-	.	2A\	tu-	(>2f\	tu-	1cc	tu-
.	.	.	2G/	.	2e\)	.	.	.
=20	=20	=20	=20	=20	=20	=20	=20	=20
2F\	-am	.	2A\	-am	2f\	-am	2cc\	-am
4D\	Do-	.	4A\	Do-	4f\	Do-	4dd\	Do-
8F\	-mi-	.	8A\	-mi-	8f\	-mi-	8dd\	-mi-
8D\	-ne	.	8A\	-ne	8f\	-ne	8dd\	-ne
=21	=21	=21	=21	=21	=21	=21	=21	=21
4C#X/	De-	.	4A\	De-	4e\	De-	4cc#X\	De-
4BBn/	-us	.	4A\	-us	4f\	-us	4dd\	-us
4AA/	rex	.	4A\	rex	4g\	rex	4ee\	rex
!LO:SIC:l:v:s=coe-	!	!	!LO:SIC:l:v:s=coe-	!	!LO:SIC:l:v:s=coe-	!	!LO:SIC:l:v:s=coe-	!
4C#/	ce-	.	4A\	ce-	4e\	ce-	4cc#\	ce-
!	!	!	!	!	!	!	!LO:LB:g=original	!
=22	=22	=22	=22	=22	=22	=22	=22	=22
4D\	-les-	.	4A\	-les-	4f\	-les-	4dd\	-les-
4F\	-tis	.	4A\	-tis	4f\	-tis	4dd\	-tis
4A\	De-	.	4A\	De-	4f\	De-	4dd\	De-
4D\	-us	.	4d\	-us	4a\	-us	4ff\	-us
!LO:LB:g=original	!	!	!	!	!	!	!	!
=23	=23	=23	=23	=23	=23	=23	=23	=23
2C#X/	pa-	.	2B-X\	pa-	2g\	pa-	2ee\	pa-
4D\	-ter	.	4A\	-ter	4f\	-ter	4dd\	-ter
4D\	om-	.	4A\	om-	4f\	om-	4dd\	om-
!	!	!	!LO:LB:g=original	!	!LO:LB:g=original	!	!	!
=24	=24	=24	=24	=24	=24	=24	=24	=24
2.AA/	-ni-	.	2.A\	-ni-	2.e\	-ni-	2.dd\	-ni-
4AA/	-po-	.	4A\	-po-	4e\	-po-	4cc#X\	-po-
=25	=25	=25	=25	=25	=25	=25	=25	=25
2D\	-tens	.	2A\	-tens	2f\	-tens	2dd\	-tens
!LO:TX:a:t=P:problem:w źródle "p." zapisane na pięciolinii	!	!	!	!	!	!	!	!
!	!	!LO:DY:rj	!	!	!	!	!	!
!	!	!LO:DY:b:t=p.	!	!	!	!	!	!
[>2d\	Do-	p	[>2d\	Do-	[>2a\	Do-	[>2ff\	Do-
=26	=26	=26	=26	=26	=26	=26	=26	=26
2d\]	.	.	2d\]	.	2a\]	.	2ff\]	.
4c#X\	-mi-	.	4c#X\	-mi-	4g\	-mi-	4ee\	-mi-
4c#\	-ne	.	4c#\	-ne	4g\	-ne	4ee\	-ne
=27	=27	=27	=27	=27	=27	=27	=27	=27
2A\	fi-	.	2A\	fi-	2f\	fi-	2dd\	fi-
!LO:TX:a:t=P:problem:w źródle ta adnotacja zapisana za taktem 27, na pięciolinii	!	!	!	!	!	!	!	!
!LO:TX:b:i:t=V&colon; S&colon;	!	!	!	!	!	!	!	!
2A\	-li	.	2A\	-li	2e\	-li	2cc#X\	-li
!LO:PB:g=original	!	!	!	!	!	!	!LO:LB:g=original	!
=28	=28	=28	=28	=28	=28	=28	=28	=28
2A\	u-	.	2A\	u-	(>4e\	u-	(>4cc#X\	u-
.	.	.	.	.	4f\)	.	4dd\)	.
2A\	-ni-	.	2A\	-ni-	(>4g\	-ni-	(>4ee\	-ni-
.	.	.	.	.	4e\)	.	4cc#\)	.
=29	=29	=29	=29	=29	=29	=29	=29	=29
4A\	-ge-	.	4A\	-ge-	4f\	-ge-	4dd\	-ge-
4c#X\	-ni-	.	4c#X\	-ni-	4g\	-ni-	4ee\	-ni-
2d\	-te	.	2d\	-te	2a\	-te	2ff\	-te
=30	=30	=30	=30	=30	=30	=30	=30	=30
!	!	!LO:DY:rj	!	!	!	!	!	!
!	!	!LO:DY:a:t=f.	!	!	!	!	!	!
2C#X/	Je-	f	2B-\	Je-	2g\	Je-	2ee\	Je-
2D/	-su	.	2A\	-su	2f\	-su	2dd\	-su
!	!	!	!	!	!LO:LB:g=original	!	!	!
=31	=31	=31	=31	=31	=31	=31	=31	=31
2A\	chri-	.	1A	Chri-	1e	Chri-	1cc#X	Chri-
2AA/	.	.	.	.	.	.	.	.
=32	=32	=32	=32	=32	=32	=32	=32	=32
1D	-ste	.	2.A\	-ste.	2f\	-ste	2.dd\	-ste,
.	.	.	.	.	2r	.	.	.
.	.	.	4r	.	.	.	4r	.
!	!	!	!LO:LB:g=original	!	!	!	!	!
=33	=33	=33	=33	=33	=33	=33	=33	=33
(>4F\	Do-	.	2cn\	Do-	2f\	Do-	2a\	Do-
4G\)	.	.	.	.	.	.	.	.
4A\	-mi-	.	4c\	-mi-	4f\	-mi-	4a\	-mi-
4B-X\	-ne	.	4c\	-ne	4f\	-ne	4a\	-ne
=34	=34	=34	=34	=34	=34	=34	=34	=34
2c\	De-	.	2c\	De-	2f\	De-	2a\	De-
2C/	-us	.	2c\	-us	2e\	-us	2g\	-us
!LO:LB:g=original	!	!	!	!	!	!	!LO:LB:g=original	!
=35	=35	=35	=35	=35	=35	=35	=35	=35
(>4C\	a-	.	2.e\	a-	2.g\	A-	2.b-\	A-
4D\)	.	.	.	.	.	.	.	.
(>4E\	-gnus	.	.	.	.	.	.	.
4C\)	.	.	4e\	-gnus	4g\	-gnus	4b-\	-gnus
=36	=36	=36	=36	=36	=36	=36	=36	=36
2F\	De-	.	2c\	De-	2g\	De-	2b-\	De-
2F\	-i	.	2c\	-i	2f\	-i	2a\	-i
=37	=37	=37	=37	=37	=37	=37	=37	=37
(>4E\	fi-	.	2c\	fi-	(>4e\	fi-	(>4g\	fi-
4D\)	.	.	.	.	4f\)	.	4a\)	.
4C/	-li-	.	4c\	-li-	4g\	-li-	4b-\	-li-
4E\	-us	.	4c\	-us	4e\	-us	4g\	-us
!	!	!	!	!	!LO:LB:g=original	!	!	!
=38	=38	=38	=38	=38	=38	=38	=38	=38
(>4F\	fi-	.	4c\	pa-	(>4f\	fi-	(>4a\	fi-
4E\)	.	.	4B-\	.	4g\)	.	4b-\)	.
4F\	-li-	.	4A\	.	4a\	-li-	(>4cc\	-li-
4B-\	-us	.	4G\	.	4b-\	-us	4dd\)	-us
=39	=39	=39	=39	=39	=39	=39	=39	=39
(>2c\	pa-	.	2F/	.	(>2a\	pa-	(>2cc\	pa-
2C/)	.	.	2c\	.	2g\)	.	2b-\)	.
=40	=40	=40	=40	=40	=40	=40	=40	=40
!	!	!	!	!	!	!	!LO:TX:a:t=P:problem:w źródle ta adnotacja zapisana za taktem 40, na pięciolinii	!
!	!	!	!	!	!	!	!LO:TX:b:i:t=V&colon; S&colon;	!
1F	-tris	.	1c	-tris	1f	-tris	1a	-tris.
!LO:LB:g=original	!	!	!LO:LB:g=original	!	!	!	!LO:PB:g=original	!
==41	==41	==41	==41	==41	==41	==41	==41	==41
*M3/2	*	*	*M3/4	*	*M3/2	*	*M3/4	*
*	*	*	*rscale:1/2	*	*	*	*rscale:1/2	*
!	!	!	!LO:TX:t=P:problem:w źródle metrum 3/4, ale w innych głosach 3/2; użyto rscale	!	!	!	!LO:TX:t=P:problem:w źródle metrum 3/4, ale w innych głosach 3/2; użyto rscale	!
2D\	qui	.	2A\	qui	2f\	Qui	2a\	qui
=42	=42	=42	=42	=42	=42	=42	=42	=42
2C#X/	tol-	.	2A\	tol-	2e\	tol-	2a\	tol-
2C#/	-lis	.	2G/	-lis	2e\	-lis	2a\	-lis
2D\	pec-	.	2F/	pec-	2f\	pec-	2a\	pec-
=43	=43	=43	=43	=43	=43	=43	=43	=43
2E\	-ca-	.	2E/	-ca-	(>2g\	-ca-	1a	-ca-
2C#X/	.	.	2G/	.	2e\)	.	.	.
2D\	-ta	.	2F/	-ta	2f\	-ta	2a\	-ta
=44	=44	=44	=44	=44	=44	=44	=44	=44
2D\	mun-	.	2F/	mun-	1.f	mun-	(>2a\	mun-
2B-X\	.	.	2G/	.	.	.	1dd)	.
2G#X\	.	.	2Bn\	.	.	.	.	.
!	!	!	!	!	!LO:LB:g=original	!	!	!
=45	=45	=45	=45	=45	=45	=45	=45	=45
2A\	-di	.	2A\	-di	2e\	-di	2cc#X\	-di
2Gn\	mi-	.	2A\	mi-	2e\	mi-	2cc#\	mi-
2G\	-se-	.	2A\	-se-	2f\	-se-	2cc#\	-se-
=46	=46	=46	=46	=46	=46	=46	=46	=46
(>2F\	-re-	.	(>2A\	-re-	(>2f\	-re-	(>2dd\	-re-
2E\)	.	.	2G\)	.	2g\)	.	2ee\)	.
2D\	-re	.	2F/	-re	2a\	-re	2ff\	-re
!LO:LB:g=original	!	!	!	!	!	!	!	!
=47	=47	=47	=47	=47	=47	=47	=47	=47
(>2B-\	no-	.	2G/	no-	(>2g\	no-	(>2ee\	no-
2A\	.	.	1A/	.	2f\	.	2dd\	.
2AA/)	.	.	.	.	2e\)	.	2cc#X\)	.
!	!	!	!	!	!	!	!LO:LB:g=original	!
=48	=48	=48	=48	=48	=48	=48	=48	=48
1D	-bis	.	1d	-bis	1f	-bis	1a	-bis
!LO:TX:a:t=P:problem:w źródle "p." zapisane na pięciolinii	!	!	!	!	!	!	!	!
!	!	!LO:DY:rj	!	!	!	!	!	!
!	!	!LO:DY:b:t=p.	!	!	!	!	!	!
2A\	qui	p	2c\	qui	2f\	qui	2a\	qui
!	!	!	!LO:LB:g=original	!	!	!	!	!
=49	=49	=49	=49	=49	=49	=49	=49	=49
2G\	tol-	.	2c\	tol-	2e\	tol-	2g\	tol-
2G\	-lis	.	2c\	-lis	2e\	lis	2g\	-lis
2A\	pec-	.	2c\	pec-	2f\	pec-	2a\	pec-
=50	=50	=50	=50	=50	=50	=50	=50	=50
1B-	ca-	.	1c	-ca-	1g	-ca-	1b-	-ca-
2A\	-ta	.	2c\	-ta	2f\	-ta	2a\	-ta
=51	=51	=51	=51	=51	=51	=51	=51	=51
(>1B-	mun-	.	1.c	mun-	(>1g	mun-	(>1b-	mun-
2A\)	.	.	.	.	2f\)	.	2a\)	.
!	!	!	!	!	!LO:LB:g=original	!	!	!
=52	=52	=52	=52	=52	=52	=52	=52	=52
1.G	-di	.	1.c	-di	1.e	-di	1.g	-di,
=53	=53	=53	=53	=53	=53	=53	=53	=53
!LO:TX:a:t=P:problem:w źródle "f." zapisane na pięciolinii	!	!	!	!	!	!	!	!
!	!	!LO:DY:rj	!	!	!	!	!	!
!	!	!LO:DY:b:t=f.	!	!	!	!	!	!
2.B-\	sus-	f	2.c\	sus-	2.e\	sus-	2.g\	sus-
4B-\	-ci-	.	4c\	-ci-	4e\	-ci-	4g\	-ci-
2A\	-pe	.	2c\	-pe	2f\	-pe	2a\	-pe
!LO:LB:g=original	!	!	!	!	!	!	!	!
=54	=54	=54	=54	=54	=54	=54	=54	=54
1E	de-	.	1c	de-	1g	de-	1b-	de-
2F\	-pre-	.	2c\	-pre-	2f\	-pre-	2a\	-pre-
!	!	!	!	!	!	!	!LO:LB:g=original	!
=55	=55	=55	=55	=55	=55	=55	=55	=55
1C	-ca-	.	1e	-ca-	1b-	-ca-	1g	-ca-
2F\	-ti-	.	2c\	-ti-	2a\	-ti-	2f\	-ti-
=56	=56	=56	=56	=56	=56	=56	=56	=56
(>2E\	-o-	.	1c	-o-	1g	-o-	1b-	-o-
2C\)	.	.	.	.	.	.	.	.
2F\	-nem	.	2c\	-nem	2f\	-nem	2a\	-nem
=57	=57	=57	=57	=57	=57	=57	=57	=57
(>2BB-/	no-	.	(>2d\	no-	(>1f	no-	1.g	no-
1C)	.	.	1c)	.	.	.	.	.
.	.	.	.	.	2e\)	.	.	.
!	!	!	!LO:LB:g=original	!	!	!	!	!
=58	=58	=58	=58	=58	=58	=58	=58	=58
1F	-stram	.	1c	-stram	1f	-stram	2a\	-stram
.	.	.	.	.	.	.	1a	qui
2F\	qui	.	2c\	qui	2f\	qui	.	.
=59	=59	=59	=59	=59	=59	=59	=59	=59
(<4C/	se-	.	2c\	se-	(>4e\	se-	2g\	se-
4D/)	.	.	.	.	4f\)	.	.	.
(>4E\	-des	.	2c\	-des	(>4g\	-des	2b-\	-des
4D\)	.	.	.	.	4f\)	.	.	.
(>4E\	ad-	.	2c\	ad	(>4g\	ad	2b-\	ad
4C\)	.	.	.	.	4e\)	.	.	.
!LO:LB:g=original	!	!	!	!	!LO:LB:g=original	!	!	!
=60	=60	=60	=60	=60	=60	=60	=60	=60
2.F\	-dex-	.	2.A\	dex-	2.a\	dex-	2.cc\	de-
4G\	-te-	.	4B-\	-te-	4g\	-te-	4b-\	-xte-
(>4A\	-ram	.	2c\	-ram	2f\	-ram	2a\	-ram
4B-\)	.	.	.	.	.	.	.	.
=61	=61	=61	=61	=61	=61	=61	=61	=61
2c\	pa-	.	2c\	pa-	2f\	pa-	2a\	pa-
2C/	-tris	.	2c\	-tris	2e\	-tris	2g\	-tris
2r	.	.	2r	.	2r	.	2r	.
!	!	!	!	!	!	!	!LO:LB:g=original	!
=62	=62	=62	=62	=62	=62	=62	=62	=62
(>2C/	mi-	.	1c	mi-	(>2e\	mi-	(>2g\	mi-
2E\)	.	.	.	.	2g\)	.	2b-\)	.
2C/	-se-	.	2c\	-se-	2e\	-se-	2g\	-se-
=63	=63	=63	=63	=63	=63	=63	=63	=63
(>2F\	-re-	.	(>2d\	-re-	(>2f\	-re-	(>2a\	-re-
2E\)	.	.	2B-\)	.	2g\)	.	2b-\)	.
2F\	-re	.	2A\	-re	2a\	-re	2cc\	-re
=64	=64	=64	=64	=64	=64	=64	=64	=64
2BB-/	no-	.	2d\	no-	(>2g\	no-	(>2b-\	no-
1C	.	.	1c	.	2f\	.	2a\	.
.	.	.	.	.	2e\)	.	2g\)	.
=65	=65	=65	=65	=65	=65	=65	=65	=65
1.F	-bis	.	1.c	-bis	1.f	-bis.	1.a	-bis.
!LO:LB:g=original	!	!	!LO:LB:g=original	!	!LO:LB:g=original	!	!	!
==66	==66	==66	==66	==66	==66	==66	==66	==66
*M4/4	*	*	*M4/4	*	*M4/4	*	*M4/4	*
*met(C.)	*	*	*met(C.)	*	*met(C.)	*	*met(C.)	*
*	*	*	*rscale:1	*	*	*	*rscale:1	*
4F\	Quo-	.	4c\	Quo-	4.a\	Quo-	4cc\	Quo-
4G\	-ni-	.	4c\	-ni-	.	.	4b-\	-ni-
.	.	.	.	.	8g\	-ni-	.	.
4A\	-am	.	4c\	-am	4f\	-am	4a\	-am
4G\	tu	.	4c\	tu	4g\	tu	4b-\	tu
=67	=67	=67	=67	=67	=67	=67	=67	=67
(>4F\	so-	.	2c\	so-	(>4a\	so-	(>4cc\	so-
4E\)	.	.	.	.	4g\)	.	4b-\)	.
4F\	-lus	.	4c\	-lus	4f\	-lus	4a\	-lus
4C/	tu	.	4c\	tu	4f\	tu	4g\	tu
!	!	!	!	!	!	!	!LO:LB:g=original	!
=68	=68	=68	=68	=68	=68	=68	=68	=68
2F\	so-	.	2.c\	so-	4f\	so-	(>4a\	so-
.	.	.	.	.	4e\	-lus	4g\)	.
(>4F\	-lus	.	.	.	4f\	so-	(>4a\	-lus
4BB-/)	.	.	4c\	-lus	(>8g\L	-lus	8b-\L	.
.	.	.	.	.	8f\J)	.	8a\J)	.
=69	=69	=69	=69	=69	=69	=69	=69	=69
2C/	san-	.	2c\	san-	2f\	san-	2a\	San-
2C/	-ctus	.	2c\	-ctus	2e\	-ctus	2g\	-ctus
!	!	!	!	!	!LO:LB:g=original	!	!	!
=70	=70	=70	=70	=70	=70	=70	=70	=70
2C/	tu	.	2e\	tu	2g\	tu	2b-\	tu
4C/	so-	.	4c\	so-	4f\	so-	4a\	so-
4C/	-lus	.	4c\	-lus	4e\	-lus	4g\	-lus
=71	=71	=71	=71	=71	=71	=71	=71	=71
4F\	Do-	.	4c\	Do-	4.f\	Do-	4a\	Do-
4C/	-mi-	.	4c\	-mi-	.	.	4b-\	-mi-
.	.	.	.	.	8g\	-mi-	.	.
!LO:LB:g=original	!	!	!	!	!	!	!	!
4F\	-nus	.	4f\	-nus	4a\	-nus	4cc\	-nus
4F\	tu	.	4f\	tu	4a\	tu	4cc\	tu
!	!	!	!LO:LB:g=original	!	!	!	!	!
=72	=72	=72	=72	=72	=72	=72	=72	=72
4F\	so-	.	4f\	so-	4a\	so-	4cc\	so-
8F\	-lus	.	8f\	-lus	8b-\	-lus	8dd\	-lus
8F\	al-	.	8f\	al-	8a\	al-	8cc\	al-
!	!	!	!	!	!	!	!LO:LB:g=original	!
4E\	-tis-	.	4c\	-tis-	4g\	-tis-	4b-\	-tis-
4F\	-si-	.	4c\	-si-	4f\	-si-	4a\	-si-
=73	=73	=73	=73	=73	=73	=73	=73	=73
!	!	!	!	!	!LO:TX:a:t=P:problem:w źródle ta adnotacja zapisana za taktem 73, na pięciolinii	!	!	!
!	!	!	!	!	!LO:TX:b:i:t=V&colon; S&colon;	!	!	!
1C	-mus	.	1c	-mus	1e	-mus	1g	-mus
!	!	!	!	!	!LO:PB:g=original	!	!	!
=74	=74	=74	=74	=74	=74	=74	=74	=74
2C/	Je-	.	2B-\	Je-	2g\	Je-	2ee\	Je-
2E\	-su	.	2c\	-su	2b-\	-su	2gg\	-su
=75	=75	=75	=75	=75	=75	=75	=75	=75
4F\	chri-	.	1c	chri-	(>2a\	Chri-	(>2ff\	Chri-
4A\	.	.	.	.	.	.	.	.
4c\	.	.	.	.	2g\)	.	2ee\)	.
4C/	.	.	.	.	.	.	.	.
=76	=76	=76	=76	=76	=76	=76	=76	=76
2F\	-ste	.	2A\	-ste	2f\	-ste	2cc\	-ste
2C/	cum	.	2c\	cum	2g\	cum	2ee\	cum
!LO:LB:g=original	!	!	!	!	!	!	!	!
=77	=77	=77	=77	=77	=77	=77	=77	=77
(>4F\	san-	.	2f\	san-	2a\	san-	2cc\	san-
4G\)	.	.	.	.	.	.	.	.
(>4A\	-cto	.	2f\	-cto	2a\	-cto	2cc\	-cto
4F\)	.	.	.	.	.	.	.	.
=78	=78	=78	=78	=78	=78	=78	=78	=78
4C/	spi-	.	4e\	spi-	4g\	spi-	4b-\	spi-
4D\	-ri-	.	4d\	-ri-	4f\	-ri-	4a\	-ri-
4E\	-tu	.	4c\	-tu	4e\	-tu	4g\	-tu
4C/	in	.	4e\	in	4g\	in	4b-\	in
!	!	!	!	!	!	!	!LO:LB:g=original	!
=79	=79	=79	=79	=79	=79	=79	=79	=79
4F\	glo-	.	4c\	glo-	4f\	glo-	4a\	glo-
!	!	!	!	!	!	!	!LO:SIC:l:v:s=-ri-	!
4C/	-ri-	.	4c\	-ri-	4g\	-ri-	4b-\	-ry-
2F\	-a	.	2f\	-a	2a\	-a	2cc\	-a
!	!	!	!LO:LB:g=original	!	!LO:LB:g=original	!	!	!
=80	=80	=80	=80	=80	=80	=80	=80	=80
2E\	De-	.	2c\	De-	2g\	De-	2b-\	De-
2F\	-i	.	2c\	-i	2f\	-i	2a\	-i
=81	=81	=81	=81	=81	=81	=81	=81	=81
2C/	pa-	.	2c\	pa-	2e\	pa-	2g\	pa-
2F\	-tris	.	2c\	-tris	2f\	-tris	2a\	-tris
=82	=82	=82	=82	=82	=82	=82	=82	=82
1C	a-	.	1c	A-	(>2f\	a-	(>2a\	a-
.	.	.	.	.	2e\)	.	2g\)	.
=83	=83	=83	=83	=83	=83	=83	=83	=83
1F	-men.	.	1c	-men.	1f	-men.	1a	-men.
==	==	==	==	==	==	==	==	==
*-	*-	*-	*-	*-	*-	*-	*-	*-
!!!system-decoration: [(s1,s2,s3,s4)]
!!!RDF**kern: > = above
!!!RDF**kern: < = below
!!!EED: Antoni Szymański
!!!EST: 2021-02-04
!!!ENC: Marcin Jachim
!!!END: 2021-01-28
